src/assets/default-avatar.svg

<svg width="64" height="64" viewBox="0 0 64 64" fill="none" xmlns="http://www.w3.org/2000/svg">
<circle cx="32" cy="32" r="32" fill="#024EC9"/>
<path d="M36.2985 25.0651C36.2985 25.3263 36.2803 25.5874 36.2469 25.8456C36.2621 25.7417 36.2773 25.6349 36.2894 25.531C36.2166 26.0474 36.077 26.5489 35.8736 27.0297C35.9131 26.9347 35.9556 26.8397 35.995 26.7448C35.7917 27.2137 35.5306 27.6529 35.212 28.0565L35.4032 27.8161C35.0875 28.2137 34.7203 28.5728 34.3136 28.8815L34.5594 28.6945C34.1466 29.0031 33.6974 29.2613 33.2179 29.4601C33.315 29.4216 33.4121 29.38 33.5092 29.3414C33.0175 29.5403 32.5046 29.6768 31.9765 29.748C32.0827 29.7332 32.192 29.7183 32.2982 29.7065C31.7671 29.7747 31.2329 29.7747 30.7017 29.7065C30.8079 29.7213 30.9172 29.7361 31.0234 29.748C30.4953 29.6768 29.9824 29.5403 29.4907 29.3414C29.5878 29.38 29.6849 29.4216 29.7821 29.4601C29.3025 29.2613 28.8533 29.0061 28.4405 28.6945L28.6864 28.8815C28.2797 28.5728 27.9124 28.2137 27.5968 27.8161L27.788 28.0565C27.4723 27.6529 27.2083 27.2137 27.0049 26.7448C27.0444 26.8397 27.0868 26.9347 27.1263 27.0297C26.923 26.5489 26.7833 26.0474 26.7105 25.531C26.7257 25.6349 26.7408 25.7417 26.753 25.8456C26.6832 25.3263 26.6832 24.804 26.753 24.2846C26.7378 24.3885 26.7226 24.4953 26.7105 24.5992C26.7833 24.0828 26.923 23.5813 27.1263 23.1005C27.0868 23.1955 27.0444 23.2905 27.0049 23.3854C27.2083 22.9165 27.4693 22.4773 27.788 22.0737L27.5968 22.3141C27.9124 21.9165 28.2797 21.5574 28.6864 21.2487L28.4405 21.4357C28.8533 21.1271 29.3025 20.8689 29.7821 20.6701C29.6849 20.7086 29.5878 20.7502 29.4907 20.7888C29.9824 20.5899 30.4953 20.4534 31.0234 20.3822C30.9172 20.397 30.8079 20.4119 30.7017 20.4237C31.2329 20.3555 31.7671 20.3555 32.2982 20.4237C32.192 20.4089 32.0827 20.3941 31.9765 20.3822C32.5046 20.4534 33.0175 20.5899 33.5092 20.7888C33.4121 20.7502 33.315 20.7086 33.2179 20.6701C33.6974 20.8689 34.1466 21.1241 34.5594 21.4357L34.3136 21.2487C34.7203 21.5574 35.0875 21.9165 35.4032 22.3141L35.212 22.0737C35.5276 22.4773 35.7917 22.9165 35.995 23.3854C35.9556 23.2905 35.9131 23.1955 35.8736 23.1005C36.077 23.5813 36.2166 24.0828 36.2894 24.5992C36.2743 24.4953 36.2591 24.3885 36.2469 24.2846C36.2803 24.5428 36.2955 24.804 36.2985 25.0651C36.3016 25.6853 36.854 26.2818 37.5126 26.2522C38.1682 26.2225 38.7297 25.7299 38.7267 25.0651C38.7206 23.6436 38.2835 22.1895 37.4276 21.0321C37.1969 20.7205 36.9511 20.4148 36.6779 20.1389C36.4017 19.8599 36.0982 19.6195 35.7826 19.3851C35.2089 18.9577 34.5685 18.6432 33.8886 18.3998C31.1479 17.4176 27.8426 18.293 25.9881 20.5009C25.7332 20.8036 25.4904 21.1182 25.284 21.4565C25.0776 21.7918 24.9167 22.1479 24.768 22.51C24.4888 23.1807 24.3461 23.8929 24.2884 24.614C24.1761 26.0266 24.5525 27.5015 25.3052 28.7123C26.0306 29.8815 27.1263 30.8846 28.4071 31.4514C28.7835 31.6176 29.169 31.7719 29.5696 31.8817C29.9672 31.9886 30.3709 32.0479 30.7806 32.0954C31.5273 32.1815 32.2891 32.1221 33.0266 31.9767C35.8281 31.4188 38.1743 29.0595 38.6083 26.2907C38.672 25.8871 38.7206 25.4835 38.7206 25.074C38.7236 24.4538 38.1591 23.8573 37.5065 23.887C36.8509 23.9077 36.2985 24.4004 36.2985 25.0651ZM40.3262 43.6216H24.7528C24.0638 43.6216 23.3749 43.6276 22.6859 43.6216C22.61 43.6216 22.5341 43.6157 22.4613 43.6068C22.5675 43.6216 22.6768 43.6365 22.783 43.6483C22.6616 43.6305 22.5463 43.5979 22.434 43.5534C22.5311 43.5919 22.6282 43.6335 22.7253 43.6721C22.6039 43.6216 22.4916 43.5563 22.3854 43.4762L22.6312 43.6632C22.5402 43.589 22.4552 43.5089 22.3824 43.4198L22.5736 43.6602C22.4916 43.5563 22.4279 43.4465 22.3733 43.3278C22.4127 43.4228 22.4552 43.5178 22.4947 43.6127C22.4491 43.5029 22.4188 43.3872 22.3975 43.2714C22.4127 43.3753 22.4279 43.4821 22.44 43.586C22.3915 43.2269 22.4249 42.8471 22.4249 42.485V41.2149C22.4249 40.8973 22.4431 40.5828 22.4856 40.2682C22.4704 40.3721 22.4552 40.4789 22.4431 40.5828C22.528 39.9744 22.6919 39.3779 22.9378 38.8111C22.8983 38.9061 22.8558 39.001 22.8164 39.096C23.0531 38.5559 23.3566 38.0484 23.7239 37.5825L23.5327 37.8229C23.8999 37.3629 24.3218 36.9474 24.7953 36.5884L24.5495 36.7753C25.026 36.4162 25.545 36.1195 26.0974 35.888C26.0003 35.9266 25.9031 35.9681 25.806 36.0067C26.3857 35.7693 26.9928 35.6061 27.618 35.523C27.5118 35.5378 27.4025 35.5527 27.2963 35.5645C27.7455 35.5082 28.1916 35.5052 28.6439 35.5052H34.1982C34.699 35.5052 35.1968 35.5022 35.6976 35.5645C35.5914 35.5497 35.4821 35.5349 35.3759 35.523C35.9981 35.6061 36.6081 35.7663 37.1878 36.0067C37.0907 35.9681 36.9936 35.9266 36.8965 35.888C37.4489 36.1195 37.9679 36.4162 38.4444 36.7753L38.1985 36.5884C38.669 36.9474 39.0939 37.3599 39.4612 37.8229L39.27 37.5825C39.6372 38.0484 39.9407 38.5559 40.1775 39.096C40.138 39.001 40.0955 38.9061 40.0561 38.8111C40.2989 39.3779 40.4658 39.9714 40.5508 40.5828C40.5356 40.4789 40.5204 40.3721 40.5083 40.2682C40.566 40.7163 40.569 41.1615 40.569 41.6125V43.0815C40.569 43.2507 40.5751 43.4198 40.5538 43.586C40.569 43.4821 40.5842 43.3753 40.5963 43.2714C40.5781 43.3901 40.5447 43.5029 40.4992 43.6127C40.5387 43.5178 40.5811 43.4228 40.6206 43.3278C40.569 43.4465 40.5022 43.5563 40.4203 43.6602L40.6115 43.4198C40.5356 43.5089 40.4537 43.5919 40.3626 43.6632L40.6085 43.4762C40.5022 43.5563 40.3899 43.6187 40.2685 43.6721C40.3657 43.6335 40.4628 43.5919 40.5599 43.5534C40.4476 43.5979 40.3292 43.6276 40.2109 43.6483C40.3171 43.6335 40.4264 43.6187 40.5326 43.6068C40.4658 43.6157 40.396 43.6187 40.3262 43.6216C40.0136 43.6246 39.6918 43.7522 39.4672 43.9688C39.2578 44.1736 39.097 44.5119 39.1121 44.8087C39.1425 45.4437 39.6463 46.0046 40.3262 45.9957C41.5069 45.9779 42.5449 45.2241 42.8909 44.1172C43.0275 43.678 42.9971 43.2062 42.9971 42.7551C42.9971 41.7223 43.0305 40.6985 42.8484 39.6747C42.5813 38.176 41.8104 36.7664 40.7541 35.6595C39.6979 34.5526 38.2775 33.7395 36.7751 33.3774C35.9131 33.1697 35.045 33.137 34.1648 33.137H28.7805C27.879 33.137 26.9837 33.1786 26.1065 33.4071C24.6162 33.7929 23.214 34.6149 22.179 35.7307C21.1349 36.8555 20.3792 38.268 20.1333 39.7756C19.9694 40.7875 20.0028 41.8025 20.0028 42.8233C20.0028 43.2922 19.9755 43.7819 20.1485 44.23C20.3731 44.8057 20.7312 45.2597 21.2563 45.601C21.6661 45.8651 22.1851 45.9927 22.6707 45.9987C22.9074 46.0016 23.1442 45.9987 23.3809 45.9987H40.3292C40.9636 45.9987 41.5736 45.4526 41.5433 44.8116C41.5129 44.1647 41.0091 43.6216 40.3262 43.6216Z" fill="white"/>
</svg>

<svg width="64" height="64" fill="none" xmlns="http://www.w3.org/2000/svg"><circle cx="32" cy="32" r="32" fill="#024EC9"/><path d="M36.298 25.065c0 .261-.018.522-.051.78.015-.103.03-.21.042-.314a5.982 5.982 0 01-.415 1.499c.04-.095.082-.19.121-.285a5.897 5.897 0 01-.783 1.311l.191-.24a6.11 6.11 0 01-1.09 1.066l.246-.188a6.216 6.216 0 01-1.341.766c.097-.038.194-.08.291-.119a6.338 6.338 0 01-1.532.407c.106-.015.215-.03.321-.042a6.254 6.254 0 01-1.596 0c.106.015.215.03.321.042a6.338 6.338 0 01-1.532-.407l.291.12a6.092 6.092 0 01-1.341-.766l.245.186a6.107 6.107 0 01-1.09-1.065l.192.24a6.013 6.013 0 01-.783-1.311c.04.095.082.19.121.285a5.986 5.986 0 01-.416-1.499c.016.104.03.21.043.315a5.845 5.845 0 010-1.561c-.015.104-.03.21-.043.314a5.986 5.986 0 01.416-1.498l-.121.284a5.85 5.85 0 01.783-1.311l-.191.24a6.107 6.107 0 011.09-1.065l-.247.187a6.215 6.215 0 011.342-.766l-.291.119a6.338 6.338 0 011.532-.407c-.106.015-.215.03-.321.042a6.254 6.254 0 011.596 0c-.106-.015-.215-.03-.322-.042a6.338 6.338 0 011.533.407l-.291-.119c.48.199.929.454 1.341.766l-.245-.187a6.11 6.11 0 011.09 1.065l-.192-.24c.316.403.58.842.783 1.311-.04-.095-.082-.19-.121-.285.203.481.343.983.415 1.5a11.69 11.69 0 01-.042-.315c.033.258.048.519.051.78.004.62.556 1.217 1.215 1.187.655-.03 1.217-.522 1.214-1.187-.006-1.421-.444-2.876-1.3-4.033a8.177 8.177 0 00-.75-.893 7.686 7.686 0 00-.894-.754c-.574-.427-1.215-.742-1.894-.985-2.741-.982-6.046-.107-7.9 2.1a7.817 7.817 0 00-.705.956 7.224 7.224 0 00-.516 1.054c-.28.67-.422 1.383-.48 2.104-.112 1.413.264 2.887 1.017 4.098.726 1.17 1.821 2.173 3.102 2.74.377.166.762.32 1.163.43a8.33 8.33 0 001.21.213c.747.087 1.51.027 2.247-.118 2.801-.558 5.147-2.918 5.581-5.686a7.77 7.77 0 00.113-1.217c.003-.62-.562-1.217-1.214-1.187-.656.02-1.209.513-1.209 1.178zm4.028 18.557H24.753c-.69 0-1.378.006-2.067 0a1.86 1.86 0 01-.225-.015c.107.015.216.03.322.041a1.554 1.554 0 01-.349-.095l.291.12a1.55 1.55 0 01-.34-.197l.246.187a1.732 1.732 0 01-.249-.243l.192.24a1.62 1.62 0 01-.2-.332l.12.285a1.683 1.683 0 01-.096-.342c.015.104.03.211.042.315-.049-.36-.015-.739-.015-1.101v-1.27c0-.318.018-.632.06-.947-.015.104-.03.21-.042.315a6.815 6.815 0 01.495-1.772l-.122.285c.237-.54.54-1.048.908-1.513l-.191.24a7.12 7.12 0 011.262-1.235l-.246.187a7.222 7.222 0 011.548-.887l-.291.119a7.32 7.32 0 011.812-.484c-.106.015-.215.03-.322.041.45-.056.896-.059 1.348-.059h5.554c.501 0 .999-.003 1.5.06-.107-.015-.216-.03-.322-.042a7.225 7.225 0 011.812.484l-.291-.119a7.176 7.176 0 011.547.887l-.245-.187c.47.36.895.772 1.262 1.235l-.191-.24c.367.465.67.973.907 1.513l-.12-.285c.242.567.409 1.16.494 1.772-.015-.104-.03-.21-.043-.315.058.448.061.893.061 1.344v1.47c0 .169.006.338-.015.504.015-.104.03-.21.042-.315a1.468 1.468 0 01-.097.342l.122-.285a1.5 1.5 0 01-.2.332l.19-.24a1.675 1.675 0 01-.248.243l.245-.187a1.68 1.68 0 01-.34.196c.098-.038.195-.08.292-.119-.112.045-.23.075-.35.095.107-.015.216-.03.323-.041a2.303 2.303 0 01-.207.015c-.312.003-.634.13-.859.347-.21.205-.37.543-.355.84.03.635.534 1.196 1.214 1.187 1.18-.018 2.219-.772 2.565-1.879.137-.439.106-.91.106-1.362 0-1.033.034-2.056-.149-3.08-.267-1.499-1.038-2.909-2.094-4.015a8.242 8.242 0 00-3.979-2.283c-.862-.207-1.73-.24-2.61-.24H28.78c-.902 0-1.797.042-2.674.27-1.49.386-2.893 1.208-3.928 2.324-1.044 1.124-1.8 2.537-2.046 4.045-.164 1.011-.13 2.026-.13 3.047 0 .47-.027.959.145 1.407a2.79 2.79 0 001.108 1.371c.41.264.93.392 1.415.398.236.003.473 0 .71 0h16.948c.635 0 1.245-.546 1.214-1.187-.03-.647-.534-1.19-1.217-1.19z" fill="#fff"/></svg>
